source/images/logo/php.svg

<svg fill="none" height="40" viewBox="0 0 81 40" width="81" xmlns="http://www.w3.org/2000/svg" xmlns:xlink="http://www.w3.org/1999/xlink"><clipPath id="a"><path d="m.375 0h80v40h-80z"/></clipPath><g clip-path="url(#a)" fill="#000"><path d="m6.4382 8.89844h11.3632c3.3352.028 5.752.9896 7.2504 2.88316 1.4984 1.8936 1.9928 4.48 1.484 7.7592-.1976 1.4984-.636 2.968-1.3144 4.4096-.6504 1.4416-1.5544 2.7416-2.7136 3.9008-1.4136 1.4696-2.9256 2.4024-4.5368 2.7984s-3.2792.5936-5.0032.5936h-5.088l-1.6112 8.056h-5.8936zm4.9608 4.83356-2.544 12.72c.1696.028.3392.0424.5088.0424h.5936c2.7136.028 4.9752-.24 6.784-.8056 1.8088-.5936 3.0248-2.6568 3.6464-6.1904.5088-2.968 0-4.6784-1.5264-5.1304-1.4984-.452-3.3776-.664-5.6392-.636-.3392.028-.664.0424-.9752.0424-.2824 0-.5792 0-.8904 0z"/><path d="m33.2494.799805h5.8512l-1.6536 8.098395h5.2576c2.8832.0568 5.0312.6504 6.4448 1.7808 1.4416 1.1304 1.8656 3.2792 1.272 6.4448l-2.8408 14.1192h-5.936l2.7136-13.4832c.2824-1.4136.1976-2.4168-.2544-3.0104s-1.4272-.8904-2.9256-.8904l-4.7064-.0424-3.4768 17.4264h-5.8512z"/><path d="m56.7046 8.89844h11.3631c3.3352.028 5.752.9896 7.2504 2.88316 1.4984 1.8936 1.9928 4.48 1.484 7.7592-.1976 1.4984-.636 2.968-1.3144 4.4096-.6504 1.4416-1.5544 2.7416-2.7136 3.9008-1.4136 1.4696-2.9255 2.4024-4.5367 2.7984s-3.2793.5936-5.0033.5936h-5.0879l-1.6112 8.056h-5.8936zm4.9608 4.83356-2.544 12.72c.1696.028.3392.0424.5088.0424h.5936c2.7135.028 4.9752-.24 6.7839-.8056 1.8088-.5936 3.0248-2.6568 3.6464-6.1904.5088-2.968.0001-4.6784-1.5263-5.1304-1.4984-.452-3.3777-.664-5.6392-.636-.3392.028-.6641.0424-.9753.0424-.2824 0-.5791 0-.8903 0z"/></g></svg>

<svg width="81" height="40" viewBox="0 0 81 40" fill="none" xmlns="http://www.w3.org/2000/svg">
<g clip-path="url(#clip0)">
<path d="M6.4382 8.89844H17.8014C21.1366 8.92644 23.5534 9.88804 25.0518 11.7816C26.5502 13.6752 27.0446 16.2616 26.5358 19.5408C26.3382 21.0392 25.8998 22.5088 25.2214 23.9504C24.571 25.392 23.667 26.692 22.5078 27.8512C21.0942 29.3208 19.5822 30.2536 17.971 30.6496C16.3598 31.0456 14.6918 31.2432 12.9678 31.2432H7.8798L6.2686 39.2992H0.375L6.4382 8.89844ZM11.399 13.732L8.855 26.452C9.0246 26.48 9.1942 26.4944 9.3638 26.4944C9.5614 26.4944 9.7598 26.4944 9.9574 26.4944C12.671 26.5224 14.9326 26.2544 16.7414 25.6888C18.5502 25.0952 19.7662 23.032 20.3878 19.4984C20.8966 16.5304 20.3878 14.82 18.8614 14.368C17.363 13.916 15.4838 13.704 13.2222 13.732C12.883 13.76 12.5582 13.7744 12.247 13.7744C11.9646 13.7744 11.6678 13.7744 11.3566 13.7744L11.399 13.732Z" fill="black"/>
<path d="M33.2494 0.799805H39.1006L37.447 8.8982H42.7046C45.5878 8.955 47.7358 9.5486 49.1494 10.679C50.591 11.8094 51.015 13.9582 50.4214 17.1238L47.5806 31.243H41.6446L44.3582 17.7598C44.6406 16.3462 44.5558 15.343 44.1038 14.7494C43.6518 14.1558 42.6766 13.859 41.1782 13.859L36.4718 13.8166L32.995 31.243H27.1438L33.2494 0.799805Z" fill="black"/>
<path d="M56.7046 8.89844H68.0677C71.4029 8.92644 73.8197 9.88804 75.3181 11.7816C76.8165 13.6752 77.3109 16.2616 76.8021 19.5408C76.6045 21.0392 76.1661 22.5088 75.4877 23.9504C74.8373 25.392 73.9333 26.692 72.7741 27.8512C71.3605 29.3208 69.8486 30.2536 68.2374 30.6496C66.6262 31.0456 64.9581 31.2432 63.2341 31.2432H58.1462L56.535 39.2992H50.6414L56.7046 8.89844ZM61.6654 13.732L59.1214 26.452C59.291 26.48 59.4606 26.4944 59.6302 26.4944C59.8278 26.4944 60.0262 26.4944 60.2238 26.4944C62.9373 26.5224 65.199 26.2544 67.0077 25.6888C68.8165 25.0952 70.0325 23.032 70.6541 19.4984C71.1629 16.5304 70.6542 14.82 69.1278 14.368C67.6294 13.916 65.7501 13.704 63.4886 13.732C63.1494 13.76 62.8245 13.7744 62.5133 13.7744C62.2309 13.7744 61.9342 13.7744 61.623 13.7744L61.6654 13.732Z" fill="black"/>
</g>
<defs>
<clipPath id="clip0">
<rect width="80" height="40" fill="white" transform="translate(0.375)"/>
</clipPath>
</defs>
</svg>
